packages/katcn/src/icons/svg/coinsBag-solid.svg

<svg width="24" height="24" viewBox="0 0 24 24" fill="none" xmlns="http://www.w3.org/2000/svg">
<path d="M7 6.2H8H8.9H15.1H16H17L17.9 4.5C18.2 4 18.2 3.4 17.9 2.9C17.6 2.3 17 2 16.4 2H7.6C7 2 6.4 2.3 6.1 2.8C5.8 3.3 5.8 3.9 6.1 4.4L7 6.2Z" fill="black"/>
<path d="M20.6 12L17.3 7.8H16.2H15.1H8.80001H7.70001H6.70001L3.40001 12C1.80001 14 1.60001 16.7 2.90001 18.9C3.90001 20.8 6.00001 22 8.20001 22H15.9C18.1 22 20.2 20.8 21.3 18.9C22.4 16.7 22.2 14 20.6 12Z" fill="black"/>
</svg>

<svg xmlns="http://www.w3.org/2000/svg" fill="none" viewBox="0 0 24 24"><path fill="#000" d="M7 6.2h10l.9-1.7c.3-.5.3-1.1 0-1.6-.3-.6-.9-.9-1.5-.9H7.6c-.6 0-1.2.3-1.5.8s-.3 1.1 0 1.6zM20.6 12l-3.3-4.2H6.7L3.4 12c-1.6 2-1.8 4.7-.5 6.9C3.9 20.8 6 22 8.2 22h7.7c2.2 0 4.3-1.2 5.4-3.1 1.1-2.2.9-4.9-.7-6.9"/></svg>
